packages/icon/src/svg/social-google-plus.icon.svg

<svg width="24" height="24" viewBox="0 0 24 24" fill="none" xmlns="http://www.w3.org/2000/svg">
<path fill-rule="evenodd" clip-rule="evenodd" d="M12 13.4H8V11H14.6C14.7 11.4 14.7 11.7 14.7 12.2C14.7 16.2 12 19 8 19C4.09998 19 1 15.9 1 12C1 8.09998 4.09998 5 8 5C9.90002 5 11.5 5.69995 12.7 6.90002L10.8 8.69995C10.3 8.19995 9.40002 7.59998 8 7.59998C5.59998 7.59998 3.69995 9.59998 3.69995 12C3.69995 14.4 5.59998 16.4 8 16.4C10.8 16.4 11.8 14.4 12 13.4ZM21 11H23V13H21V15H19V13H17V11H19V9H21V11Z" fill="white"/>
</svg>

<svg aria-label="social google plus icon" viewBox="0 0 24 24"><path fill-rule="evenodd" clip-rule="evenodd" d="M12 13.4H8V11h6.6c.1.4.1.7.1 1.2 0 4-2.7 6.8-6.7 6.8-3.9 0-7-3.1-7-7s3.1-7 7-7c1.9 0 3.5.7 4.7 1.9l-1.9 1.8c-.5-.5-1.4-1.1-2.8-1.1-2.4 0-4.3 2-4.3 4.4 0 2.4 1.9 4.4 4.3 4.4 2.8 0 3.8-2 4-3zm9-2.4h2v2h-2v2h-2v-2h-2v-2h2V9h2v2z"/></svg>
